src/standard/scale-growing.svg

<svg xmlns="http://www.w3.org/2000/svg" viewBox="0 0 36 36">
  <path d="M31.58 4.78a.62.62 0 0 0-.58-.4h-7a.62.62 0 0 0 0 1.24h5.49L15.74 19.38H5a.62.62 0 0 0-.62.62v11a.62.62 0 0 0 .62.62h11a.62.62 0 0 0 .62-.62V20.26L30.38 6.51V12a.62.62 0 0 0 1.24 0V5a.54.54 0 0 0-.04-.22Zm-16.2 25.6H5.62v-9.76h9.76Zm15.62-15a.62.62 0 0 0-.62.62v13.38H19a.62.62 0 0 0 0 1.24h12a.62.62 0 0 0 .62-.62V16a.62.62 0 0 0-.62-.62ZM6 17.62a.62.62 0 0 0 .62-.62V5.62H20a.62.62 0 1 0 0-1.24H6a.62.62 0 0 0-.62.62v12a.62.62 0 0 0 .62.62Z"/>
</svg>

<svg id="a91d7819-96be-414c-88f5-61305e87413b" data-name="Icon" xmlns="http://www.w3.org/2000/svg" viewBox="0 0 36 36">
  <title>Scale up icon - Black</title>
<desc>bigger, larger, faster, increase, growth, up, diagrams and graphs</desc>
<metadata><?xpacket begin="﻿" id="W5M0MpCehiHzreSzNTczkc9d"?>
<x:xmpmeta xmlns:x="adobe:ns:meta/" x:xmptk="Adobe XMP Core 8.0-c001 1.000000, 0000/00/00-00:00:00        ">
   <rdf:RDF xmlns:rdf="http://www.w3.org/1999/02/22-rdf-syntax-ns#">
      <rdf:Description rdf:about=""
            xmlns:xmp="http://ns.adobe.com/xap/1.0/"
            xmlns:dc="http://purl.org/dc/elements/1.1/"
            xmlns:cq="http://www.day.com/jcr/cq/1.0"
            xmlns:tiff="http://ns.adobe.com/tiff/1.0/">
         <xmp:rhcc-effective-on>2023-12-08T17:35:13.488Z</xmp:rhcc-effective-on>
         <xmp:rhcc-metadata-complete-moderator>pending</xmp:rhcc-metadata-complete-moderator>
         <xmp:rhcc-translation-id>TRAd5e4f7bb-5c0e-4e4f-9cef-2d9e91d6f580</xmp:rhcc-translation-id>
         <xmp:brand-content-type>Icon</xmp:brand-content-type>
         <xmp:CreateDate>2023-12-08T17:35:13.488Z</xmp:CreateDate>
         <xmp:rhcc-effective-on-set-on-upload>true</xmp:rhcc-effective-on-set-on-upload>
         <xmp:rhcc-metadata-complete-uploader>pending</xmp:rhcc-metadata-complete-uploader>
         <xmp:rhcc-file-last-modified>2023-12-08T17:35:25.932Z</xmp:rhcc-file-last-modified>
         <xmp:rhcc-audience>rhcc-audience:internal</xmp:rhcc-audience>
         <xmp:rhcc-rights-restricted>no</xmp:rhcc-rights-restricted>
         <xmp:brand-content-subtype>Icon</xmp:brand-content-subtype>
         <xmp:rhcc-derivative-id>DERd5e4f7bb-5c0e-4e4f-9cef-2d9e91d6f580</xmp:rhcc-derivative-id>
         <xmp:brand-logo-color>Black</xmp:brand-logo-color>
         <xmp:rhcc-notify-portal-subscribers-on-change>yes</xmp:rhcc-notify-portal-subscribers-on-change>
         <dc:format>image/svg+xml</dc:format>
         <dc:modified>2024-02-09T20:35:44.847Z</dc:modified>
         <dc:title>
            <rdf:Alt>
               <rdf:li xml:lang="x-default">Scale up icon - Black</rdf:li>
            </rdf:Alt>
         </dc:title>
         <dc:description>
            <rdf:Alt>
               <rdf:li xml:lang="x-default">bigger, larger, faster, increase, growth, up, diagrams and graphs</rdf:li>
            </rdf:Alt>
         </dc:description>
         <cq:lastReplicationAction_scene7>Activate</cq:lastReplicationAction_scene7>
         <cq:lastReplicationAction_publish>Activate</cq:lastReplicationAction_publish>
         <cq:lastReplicated_publish>2024-02-09T22:23:20.017Z</cq:lastReplicated_publish>
         <cq:lastReplicatedBy>workflow-process-service</cq:lastReplicatedBy>
         <cq:lastReplicationAction>Activate</cq:lastReplicationAction>
         <cq:lastReplicatedBy_publish>workflow-process-service</cq:lastReplicatedBy_publish>
         <cq:isDelivered>true</cq:isDelivered>
         <cq:lastReplicated>2024-02-09T22:23:20.017Z</cq:lastReplicated>
         <cq:lastReplicatedBy_scene7>workflow-process-service</cq:lastReplicatedBy_scene7>
         <cq:lastReplicated_scene7>2024-02-09T22:23:20.017Z</cq:lastReplicated_scene7>
         <tiff:ImageLength>36</tiff:ImageLength>
         <tiff:ImageWidth>36</tiff:ImageWidth>
      </rdf:Description>
   </rdf:RDF>
</x:xmpmeta>
                                                                                                    
                                                                                                    
                                                                                                    
                                                                                                    
                                                                                                    
                                                                                                    
                                                                                                    
                                                                                                    
                                                                                                    
                                                                                                    
                                 
<?xpacket end="w"?></metadata>
<g>
    <path d="M31.58,4.78a.62.62,0,0,0-.58-.4H24a.62.62,0,0,0,0,1.24h5.49L15.74,19.38H5a.62.62,0,0,0-.62.62V31a.62.62,0,0,0,.62.62H16a.62.62,0,0,0,.62-.62V20.26L30.38,6.51V12a.62.62,0,0,0,1.24,0V5A.54.54,0,0,0,31.58,4.78Zm-16.2,25.6H5.62V20.62h9.76Z"/>
    <path d="M31,15.38a.62.62,0,0,0-.62.62V29.38H19a.62.62,0,0,0,0,1.24H31a.62.62,0,0,0,.62-.62V16A.62.62,0,0,0,31,15.38Z"/>
    <path d="M6,17.62A.62.62,0,0,0,6.62,17V5.62H20a.62.62,0,1,0,0-1.24H6A.62.62,0,0,0,5.38,5V17A.62.62,0,0,0,6,17.62Z"/>
  </g>
</svg>
